packages/astro-components-stencil/src/icons/local-cafe.svg

<svg xmlns="http://www.w3.org/2000/svg" viewBox="0 0 24 24"><g xmlns="http://www.w3.org/2000/svg" id="local-cafe" fill-rule="nonzero">
            <path d="M20 3H6c-1.1 0-2 .9-2 2v8c0 2.21 1.79 4 4 4h6c2.21 0 4-1.79 4-4v-3h2c1.1 0 2-.9 2-2V5c0-1.1-.9-2-2-2zm0 5h-2V5h2v3zM3 21h16c.55 0 1-.45 1-1s-.45-1-1-1H3c-.55 0-1 .45-1 1s.45 1 1 1z"/>
        </g></svg>

<svg width="24" height="24" viewBox="0 0 24 24" fill="none" xmlns="http://www.w3.org/2000/svg">
<path fill-rule="evenodd" clip-rule="evenodd" d="M20 3H6C4.9 3 4 3.9 4 5V13C4 15.21 5.79 17 8 17H14C16.21 17 18 15.21 18 13V10H20C21.1 10 22 9.1 22 8V5C22 3.9 21.1 3 20 3ZM20 8H18V5H20V8ZM19 21H3C2.45 21 2 20.55 2 20C2 19.45 2.45 19 3 19H19C19.55 19 20 19.45 20 20C20 20.55 19.55 21 19 21Z" fill="black"/>
</svg>
